Delta/apps/scalable/accessories-calculator.svg

<svg xmlns="http://www.w3.org/2000/svg" width="192" height="192" viewBox="0 0 192 192">
  <g fill="none" fill-rule="evenodd">
    <rect width="152" height="152" x="20" y="20" fill="#56595B" rx="10"/>
    <g transform="translate(47 55)">
      <path fill="#98DC9A" d="M60,75.199996 L98.399992,75.199996 L98.399992,68.7999973 L60,68.7999973 L60,75.199996 Z M60,62.3999987 L98.399992,62.3999987 L98.399992,56 L60,56 L60,62.3999987 Z"/>
      <polygon fill="#B1B5BD" points="16.68 82 24.44 82 24.44 66.08 40.36 66.08 40.36 58.24 24.44 58.24 24.44 42.32 16.68 42.32 16.68 58.24 .68 58.24 .68 66.08 16.68 66.08"/>
      <polygon fill="#B1B5BD" points="95.6 5.52 90.16 0 78.8 11.28 67.52 0 62 5.52 73.28 16.8 62 28.08 67.52 33.6 78.8 22.32 90.16 33.6 95.6 28.08 84.32 16.8"/>
      <polygon fill="#B1B5BD" points="9 17.04 31.4 17.04 31.4 10 9 10"/>
    </g>
  </g>
</svg>

<svg width="192" height="192" version="1.1" viewBox="0 0 192 192" xmlns="http://www.w3.org/2000/svg">
 <g fill="none" fill-rule="evenodd">
  <rect x="20" y="20" width="152" height="152" rx="10" fill="#56595B"/>
  <g transform="translate(47 55)">
   <path d="m60 75.2h38.4v-6.4h-38.4v6.4zm0-12.8h38.4v-6.4h-38.4v6.4z" fill="#98DC9A"/>
   <g fill="#B1B5BD">
    <polygon points="16.68 82 24.44 82 24.44 66.08 40.36 66.08 40.36 58.24 24.44 58.24 24.44 42.32 16.68 42.32 16.68 58.24 0.68 58.24 0.68 66.08 16.68 66.08"/>
    <polygon points="95.6 5.52 90.16 0 78.8 11.28 67.52 0 62 5.52 73.28 16.8 62 28.08 67.52 33.6 78.8 22.32 90.16 33.6 95.6 28.08 84.32 16.8"/>
    <polygon points="9 17.04 31.4 17.04 31.4 10 9 10"/>
   </g>
  </g>
 </g>
</svg>
